X: 08232
M: 6/8
L: 1/8
K: D
V: 1 clef=treble middle=B
f2e dcB | A2F D2E | F>GF FED | C<Ez z2A |\
f2e dcB | A2F D2E | FGF {F}EDE | D3- "Fine"D2 H:|
|: A |\
g2e f2d | c2A d2f | g2e f2d | cez z2A |\
gfe fed | cBA def | gfe fed | (f3 "D.C."e2) |]
V: 2 clef=bass middle=d
z |\
dfa dgb | dfa dfa | dfa Bd^g | Aea A2z |\
dfa dgb | dfa dfa | dfa Aea | dfa "Fine"d2 H:|
|: z |\

